X: 14012
T: CAMDEN'S JIG
C: Bob McQuillen Dec.'09
B: Bob's Note Book 14 #12
%R: jig
%D:2009
Z: 2020 John Chambers <jc:trillian.mit.edu>
M: 6/8
L: 1/8
K: D
fg \
| a2f d2B | A2F D2f | efe ede | f2d Afg |\
| a2f d2B | A2F D2f | efg ABc | d3- d  :|
|: cd \
| e2c Ade | f2d A2f | g2e fga | g2f ecd |\
| e2c Ade | f2g afd | Bgf edc | d3- d  :|
%%begintext align
%% Camden Spear
%% was one of the stalwarts in my piano class at
%% the Maine Fiddle Camp last summer, and he
%% did so well that he earned a tune. I hope
%% you like it, Camden!
%%endtext

%%sep 1 1 500

%%sep 1 1 500

